!!!COM: Haydn, Franz Joseph
!!!CDT: 1732/03/31/-1809/05/31/
!!!CNT: Austrian
!!!OTL: Sonata No. 12 in A major
!!!SCT: Hob. XVI:12
!!!OMV: Mvmt. 3
!!!OMD: Finale: Allegretto
!!!ODT: 1750-1755///
!!!SMS: Universal Edition 1, Haydn Piano Sonatas, Vol. 1, No. 5
!!!ONB: Stich und Druck von Jos. Eberle & Co. Wien VII. Seidengasse 3-9
**kern	**kern	**dynam
*staff2	*staff1	*staff1/2
*Ipiano	*Ipiano	*Ipiano
*>[A,A,B,B]	*>[A,A,B,B]	*>[A,A,B,B]
*>norep[A,B]	*>norep[A,B]	*>norep[A,B]
*>A	*>A	*>A
*clefF4	*clefG2	*clefG2
*k[f#c#g#]	*k[f#c#g#]	*k[f#c#g#]
*A:	*A:	*A:
*M3/8	*M3/8	*M3/8
*MM112	*MM112	*MM112
=1-	=1-	=1-
16A\LL	8a/	mf
16e\	.	.
16c#\	8r	.
16e\	.	.
16A\	8r	.
16e\JJ	.	.
=2	=2	=2
16G#\LL	8b\	.
16e\	.	.
16B\	8r	.
16e\	.	.
16G#\	8r	.
16e\JJ	.	.
=3	=3	=3
16A\LL	8cc#\	.
16e\	.	.
16c#\	8r	.
16e\	.	.
16A\	8r	.
16e\JJ	.	.
=4	=4	=4
16G#\LL	8dd\	.
16e\	.	.
16B\	8r	.
16e\	.	.
16G#\	8r	.
16e\JJ	.	.
=5	=5	=5
4A\	16dd/LL	.
.	(16cc#/	.
.	16b/	.
.	16a/	.
8r	16g#/	.
.	16f#/JJ	.
=6	=6	=6
8E'\ 8c#'\L	4e/	.
8E'\ &(8c#'\&)	.	.
8E\ 8B\J	8d/	.
=7	=7	=7
&(4A\&)	4c#/)	.
8r	8r	.
*clefG2	*	*
=8	=8	=8
16d/LL	(4ff#\	p
16a/	.	.
16f#/	.	.
16a/	.	.
16d/	8gg#\	.
16a/JJ	.	.
=9	=9	=9
16c#/LL	8aa\L	.
16a/	.	.
16e/	8ee\J)	.
16a/	.	.
16c#/	8r	.
16a/JJ	.	.
=10	=10	=10
16d/LL	(4ff#\	<
16a/	.	.
16f#/	.	.
16a/	.	.
16d/	8gg#\	.
16a/JJ	.	.
=11	=11	=11
16c#/LL	8aa\L	.
16a/	.	.
16e/	8ee\J)	.
16a/	.	.
16c#/	8r	.
16a/JJ	.	.
=12	=12	=12
8B'/L	16ee\LL	.
.	16dd\	.
(8g#/	16bb\	.
.	16dd\	.
8a/J)	16dd\	.
.	16cc#\JJ	.
=13	=13	=13
(4d/	(16ff#\LL	>
.	16ee\	.
.	16dd\	.
.	16cc#\	.
8d#/	16b\	.
.	16a\JJ)	.
=14	=14	=14
8e'/)	8a/L	.
*clefF4	*	*
8E'\	8g#/J	.
8r	8r	.
=15	=15	=15
8r	(16bb\LL	mf
.	16gg#\	.
8r	16ee\	.
.	16b\	.
*clefG2	*	*
8a''/	16dd#\	.
.	16b\JJ	.
=16	=16	=16
8g#''/L	16ee\LL	.
.	16b\	.
8f#''/	16ff#\	.
.	16b\	.
8e''/J	16gg#\	.
.	16b\JJ)	.
=17	=17	=17
8r	(16bb\LL	p
.	16ggn\	.
8r	16ee\	.
.	16b\	.
8a''/	16dd#\	.
.	16b\JJ	.
=18	=18	=18
8gn''/L	16ee\LL	.
.	16b\	.
8f#/	16ff#\	.
.	16b\	.
8e''/J	16ggn\	.
.	16b\JJ)	.
=19	=19	=19
8r	(16bb\LL	mf
.	16gg#\	.
8r	16ee\	.
.	16b\	.
8a''/	16dd#\	.
.	16b\JJ	.
=20	=20	=20
8g#''/L	16ee\LL	.
.	16b\	.
8f#''/	16ff#\	.
.	16b\	.
8e''/J	16gg#\	.
.	16b\JJ)	.
=21	=21	=21
4.r	(16bb\LL	.
.	16aa\	.
.	16gg#\	.
.	16ff#\	.
.	16ee\	.
.	16ddn\JJ	.
*clefF4	*	*
=22	=22	=22
8A'\ (8e'\L	(8cc#'\L)	.
8A'\ 8e'\	8cc#'\	.
8A'\ 8e'\J)	8cc#'\J)	.
=23	=23	=23
4A\ 4e\	(16cc#\LL	.
.	16ee\	.
.	16dd#\	.
.	16cc#\	.
8r	16b\	.
.	16a\JJ	.
=24	=24	=24
4BB/ 4E/	16g#/LL	.
.	16b/	.
.	16a/	.
.	16g#/	.
8r	16f#/	.
.	16e/JJ	.
=25	=25	=25
8BB''/ 8D#''/L	4.f#/	>
8BB''/ 8D#''/	.	.
8BB''/ 8D#''/J	.	.
=26	=26	=26
8E''\	8e''/L)	.
8r	16b/L	p
.	16g#/	.
8BB''/	16a/	.
.	16f#/JJ	.
=27	=27	=27
8E''\	8e''/L	.
8r	16b/L	.
.	16g#/	.
8BB''/	16a/	.
.	16f#/JJ	.
=28	=28	=28
4E\	4e/	.
8r	8r	.
=29:|!|:	=29:|!|:	=29:|!|:
*>B	*>B	*>B
4.EE/ 4.E/	8e''/L	f
.	16g#/L	.
.	16e/	.
.	16b/	.
.	16g#/JJ	.
=30	=30	=30
4.EE/ 4.D#/	8f#''/L	.
.	16a/L	.
.	16f#/	.
.	16cc#/	.
.	16a/JJ	.
=31	=31	=31
4.EE/ 4.Dn/	8g#''\L	.
.	16b\L	.
.	16g#\	.
.	16ddn\	.
.	16b\JJ	.
=32	=32	=32
4.EE/ 4.C#/	8a''\L	.
.	16cc#\L	.
.	16a\	.
.	16ee\	.
.	16cc#\JJ	.
=33	=33	=33
*^	*	*
8G#^/L	4.E\	(16b^/LL	.
.	.	16e/	.
8B/	.	16dd/	.
.	.	16e/	.
&(8A/J&)	.	16cc#/	.
.	.	16e/JJ	.
=34	=34	=34	=34
(8G#/L	4.E\	16b/LL	.
.	.	16e/	.
8B/	.	16dd/	.
.	.	16e/	.
8A/J)	.	16cc#/	.
.	.	16e/JJ)	.
*v	*v	*	*
=35	=35	=35
4E\ 4G#\	4b\	.
8r	8r	.
=36	=36	=36
16A\LL	8a/	mf
16e\	.	.
16c#\	8r	.
16e\	.	.
16A\	8r	.
16e\JJ	.	.
=37	=37	=37
16G#\LL	8b\	.
16e\	.	.
16B\	8r	.
16e\	.	.
16G#\	8r	.
16e\JJ	.	.
=38	=38	=38
16A\LL	8cc#\	.
16e\	.	.
16c#\	8r	.
16e\	.	.
16A\	8r	.
16e\JJ	.	.
=39	=39	=39
16G#\LL	8dd\	.
16e\	.	.
16B\	8r	.
16e\	.	.
16G#\	8r	.
16e\JJ	.	.
=40	=40	=40
4A\	16dd/LL	.
.	(16cc#/	.
.	16b/	.
.	16a/	.
8r	16g#/	.
.	16f#/JJ	.
=41	=41	=41
8E'\ 8c#'\L	4e/	.
8E'\ &(8c#'\&)	.	.
8E\ 8B\J	8d/	.
=42	=42	=42
&(4A\&)	8c#/)	.
.	32g#/LLK	.
.	16.a/	.
8r	32g#/k	.
.	16.a/JJ	.
=43	=43	=43
8E'\ 8c#'\L	(4e/	.
8E'\ &(8c#'\&)	.	.
8E\ 8B\J	8d/	.
=44	=44	=44
&(4A\&)	4c#/)	.
8r	8r	.
*clefG2	*	*
=45	=45	=45
16d/LL	8dd\	p
16a/	.	.
16f#/	8r	.
16a/	.	.
16d/	8r	.
16a/JJ	.	.
=46	=46	=46
16c#/LL	8ee\	.
16a/	.	.
16e/	8r	.
16a/	.	.
16c#/	8r	.
16a/JJ	.	.
=47	=47	=47
16d/LL	8ff#\	.
16a/	.	.
16f#/	8r	.
16a/	.	.
16d/	8r	.
16a/JJ	.	.
=48	=48	=48
4B/	(16ddd\LL	.
.	16ccc#\	.
.	16bb\	.
.	16aa\	.
8r	16gg#\	.
.	16ff#\JJ	.
*clefF4	*	*
=49	=49	=49
8r	8ee'\)	.
8c#\ (8e\L	8r	.
8B\ 8d\J	8r	.
=50	=50	=50
4A\ 4c#\)	16ccc#\LL	<
.	16bb\	.
.	16aa\	.
.	16gg#\	.
8r	16ff#\	.
.	16ee\JJ	.
=51	=51	=51
8r	&(8dd'\&)	.
8B\ (8d\L	8r	.
8A\ 8c#\J	8r	.
=52	=52	=52
4G#\ 4B\)	16bb\LL	.
.	16aa\	.
.	16gg#\	.
.	16ff#\	.
8r	16ee\	.
.	16dd\JJ	.
=53	=53	=53
4AA\ 4A\	16cc#\LL	.
.	16ee\	.
.	16dd\	.
.	16cc#\	.
8r	16b\	.
.	&(16a\JJ&)	>
=54	=54	=54
4D\	(16ff#\LL	.
.	16ee\	.
.	16dd\	.
.	16cc#\	.
8r	16b\	.
.	16a\JJ)	.
=55	=55	=55
4EE/ 4E/	8a/L	.
.	8g#/J	.
8r	8r	.
=56	=56	=56
8r	(16ee/LL	mf
.	16cc#/	.
8r	16a/	.
.	16e/	.
8d''\	16g#/	.
.	16e/JJ	.
=57	=57	=57
8c#''\L	16a/LL	.
.	16e/	.
8B''\	16b/	.
.	16e/	.
8A''\J	16cc#/	.
.	16e/JJ)	.
=58	=58	=58
8r	(16ee/LL	p
.	16ccn/	.
8r	16a/	.
.	16e/	.
8d''\	16g#/	.
.	16e/JJ	.
=59	=59	=59
8cn''\L	16a/LL	.
.	16e/	.
8B''\	16b/	.
.	16e/	.
8A''\J	16ccn/	.
.	16e/JJ)	.
=60	=60	=60
8r	(16ee/LL	mf
.	16cc#/	.
8r	16a/	.
.	16e/	.
8d''\	16g#/	.
.	16e/JJ	.
=61	=61	=61
8c#''\L	16a/LL	.
.	16e/	.
8B''\	16b/	.
.	16e/	.
8A''\J	16cc#/	.
.	16e/JJ)	.
=62	=62	=62
4.r	(16ee\LL	.
.	16dd\	.
.	16cc#\	.
.	16b\	.
.	16a\	.
.	16gn\JJ	.
=63	=63	=63
8r	8f#'/)	.
8D'\ (8A'\L	(8ff#'\L	.
8D'\ 8A'\J)	8ff#'\J)	.
=64	=64	=64
4D\ 4A\	(16ff#\LL	.
.	16aa\	.
.	16gg#\	.
.	16ff#\	.
8r	16ee\	.
.	16dd\JJ	.
=65	=65	=65
4E\ 4A\	16cc#\LL	.
.	16ee\	.
.	16dd\	.
.	16cc#\	.
8r	16b\	.
.	16a\JJ	.
=66	=66	=66
8E''\ 8G#''\L	4.b\	.
8E''\ 8G#''\	.	.
8E''\ 8G#''\J	.	.
=67	=67	=67
8A''\	8a''\L)	.
8r	16ee\L	p
.	16cc#\	.
8E''\	16dd\	.
.	16b\JJ	.
=68	=68	=68
8AA''/	8a''\L	.
8r	16ee\L	.
.	16cc#\	.
8E''\	16dd\	.
.	16b\JJ	.
=69	=69	=69
4AA/	4a/	.
8r	8r	.
==:|!	==:|!	==:|!
*-	*-	*-
!!!ENC: Craig Stuart Sapp
!!!END: 2008/07/05/
